X: 1
T: Prince Rupert's March
M: 4/4
L: 1/8
R: barndance
K: Emin
B2 | e2B2 e2f2 | g3a g2g2 | f2e2 e2d2 | e6 B2 |
e2d2 e3f | gfga g2g2 | fgfe e2d2 | e6 ||
|: e2 | f3e fga2 | d3e d2d2 | g2g2 abab | g6 g2 | 
f3e fga2 | d3e d2g2 |1 f2e2 e2d2 | e6 :|2 fedf e2^d2 | e8 ||
